X: 42742
T: White Crow, The
R: reel
M: 4/4
K: Cmajor
c3 A cGGA|c2 cA cage|c2 dc B2 Ac|BGGA BcdB|
c3 A cGGA|c2 cA cage|c2 dc B2 Ac|BGGA Bcde||
gc (3ccc B2 Aa|gc (3ccc cgea|gc (3ccc B2 Ac|BGGA Bcde|
gc (3ccc cBAa|gc (3ccc agef|gc'ge c2 dc|B2 Ac Bage||
c3 A cGGA|c2 cA cage|c2 dc B2 Ac|BGGA BcdB|
c3 A cGGA|c2 cA cage|c2 dc B2 Ac|BGGA Bcde||
aA (3AAA c2 BG|Agab ageg|aA (3AAA c2 dc|BGGA Bcde|
aA (3AAA c2 BG|Agab agef|gc'ge c2 dc|B2 Ac Bage||

